X:798
T:Poll an Droighionn
R:Strathspey
C:James Stewart-Robertson
B:The Athole Collection
M:C|
L:1/8
K:A
e|c>BA>F E>FA>c|d>B d/c/B/A/ B<F F>e|c>BA>F E>FA>a|f/e/f/g/ ac e<A A:|
a|f>ea>c B>AF>a|f>ea>c ef/g/ac|e<ac<a B>AF>a|f/e/f/g/ a>c e<A A:|

